X:1
T:Title
%%score { ( 1 3 ) | ( 2 4 ) }
L:1/8
M:4/4
K:Eb
V:1 treble nm="Grand Piano"
V:3 treble 
V:2 bass 
V:4 bass 
V:1
 z4 z2[Q:1/4=108] E>F | G2 G2 F2 E2 | [DB]4 [DF]2 [DG]>[DF] | E2 E2 G2 B2 |[M:3/4] [DF]6 | %5
[M:1/4] [DF]>[EG] |[M:4/4] [FA]2 [FA]2 [EG]2 [DF]2 | z2 G2 [EGB]2 [Ge]>[Ge] | d2 c2 B2 [C=A]2 | %9
[M:3/4] [DB]6 |[M:1/4] [EG]>[FA] |[M:4/4] B2- [GB-]>[GB-] [GB]2 e->[Ge] | %12
 B2- [GB-]>[GB-] [GB]2 G>[GB] | A6 B2 | G6 z2 | [GB]2 [GB]2 [EG]2 [Ge]2 | e4 c2 c>c | %17
 B2 A2 [EG]2 [DF]2 |[M:3/4] [B,E]6 |] %19
V:2
 z4 z2 [E,G,]>[E,A,E] | [E,B,E]2 [E,B,E]2 [E,A,D]2 [E,G,]2 | [B,,F,]4 [B,,B,]2 [B,,B,]>[B,,A,] | %3
 [E,G,]2 [E,G,]2 [E,B,E]2 [E,G,E]2 |[M:3/4] [B,,B,]6 |[M:1/4] [B,,B,]>[B,,B,] | %6
[M:4/4] [B,,B,]2 [B,,B,]2 [B,,B,]2 [B,,A,]2 | G,2 z2 z4 | [F,B,F]2 [F,A,E]2 [F,D]2 [F,,F,]2 | %9
[M:3/4] [B,,F,]6 |[M:1/4] [E,B,]>[E,B,] |[M:4/4] [E,E]2 [E,E]>[E,E] [E,E]2 [E,B,]>[E,B,] | %12
 [E,E]2 [E,E]>[E,E] [E,E]2 [E,B,E]>[E,B,] | [B,,B,]2 [B,,B,]>[B,,B,] [B,,B,]2 [B,,B,]>[B,,B,] | %14
 [E,B,E]2 [E,B,]>[E,B,] [E,B,]2 [E,B,E]>[E,B,] | [E,E]2 [E,E]2 [E,B,]2 [E,_D]2 | %16
 [A,CA]4 [A,EA]2 [A,EA]>[A,EA] | [B,EG]2 [B,F]2[K:bass] [B,,B,]2 [B,,A,]2 |[M:3/4] [E,G,]6 |] %19
V:3
 x8 | x8 | x8 | x8 |[M:3/4] x6 |[M:1/4] x2 |[M:4/4] x8 | E4 z4 | x8 |[M:3/4] x6 |[M:1/4] x2 | %11
[M:4/4] G2 z2 z2 G2 | G2 z2 z4 | F2 F>F F2 D>D | z2 E>E E2 G>[FA] | x8 | x8 | x8 |[M:3/4] x6 |] %19
V:4
 x8 | x8 | x8 | x8 |[M:3/4] x6 |[M:1/4] x2 |[M:4/4] x8 | E,2- [E,B,]2 E,2 [E,B,]>[E,B,] | x8 | %9
[M:3/4] x6 |[M:1/4] x2 |[M:4/4] x8 | x8 | x8 | x8 | x8 | x8 | x4[K:bass] x4 |[M:3/4] x6 |] %19

